X:35
T:Michael Dwyer's Reel
T:The Crosses of Annagh
T:The Hump in the Bed
C:Michael Dwyer
Z:transcribed by Paul de Grae
R:reel
M:4/4
L:1/8
K:D
DFAB B2 AB|~d2 fd edBd|DFAB B2 AB|d2 gf edBd|!
DFAB B2 AB|dcdf efge|fgaf g2 fe|defd edBA:|!
d3 f eA ~A2|defg afge|d2 fd eB ~B2|gB ~B2 dBAB|!
d2 fd edfe|defe edBd|ABdf bafb|afeg fd d2:||

